icons/arrow-circle-topleftB.svg

<svg width="24" height="24" viewBox="0 0 24 24" fill="none" xmlns="http://www.w3.org/2000/svg">
<path d="M12 21C16.9706 21 21 16.9706 21 12C21 7.02944 16.9706 3 12 3C7.02944 3 3 7.02944 3 12C3 16.9706 7.02944 21 12 21Z" fill="black"/>
<path fill-rule="evenodd" clip-rule="evenodd" d="M12 3.75C7.44365 3.75 3.75 7.44365 3.75 12C3.75 16.5563 7.44365 20.25 12 20.25C16.5563 20.25 20.25 16.5563 20.25 12C20.25 7.44365 16.5563 3.75 12 3.75ZM2.25 12C2.25 6.61522 6.61522 2.25 12 2.25C17.3848 2.25 21.75 6.61522 21.75 12C21.75 17.3848 17.3848 21.75 12 21.75C6.61522 21.75 2.25 17.3848 2.25 12Z" fill="black"/>
<path fill-rule="evenodd" clip-rule="evenodd" d="M14.7961 14.8419C14.5032 15.1347 14.0283 15.1347 13.7354 14.8419L9.49279 10.5992C9.19989 10.3063 9.19989 9.83145 9.49279 9.53855C9.78568 9.24566 10.2606 9.24566 10.5534 9.53855L14.7961 13.7812C15.089 14.0741 15.089 14.549 14.7961 14.8419Z" fill="white"/>
<path fill-rule="evenodd" clip-rule="evenodd" d="M14.238 9.4325C14.238 9.84671 13.9023 10.1825 13.488 10.1825L10.2075 10.1825L10.2075 13.463C10.2075 13.8772 9.87174 14.213 9.45753 14.213C9.04332 14.213 8.70753 13.8772 8.70753 13.463L8.70753 9.92748C8.70753 9.23042 9.25546 8.68249 9.95251 8.68249L13.488 8.6825C13.9023 8.6825 14.238 9.01828 14.238 9.4325Z" fill="white"/>
</svg>

<svg xmlns="http://www.w3.org/2000/svg" fill="none" viewBox="0 0 24 24">
  <path fill="#000" d="M12 21a9 9 0 1 0 0-18 9 9 0 0 0 0 18Z"/>
  <path fill="#000" fill-rule="evenodd" d="M12 3.75a8.25 8.25 0 1 0 0 16.5 8.25 8.25 0 0 0 0-16.5ZM2.25 12c0-5.385 4.365-9.75 9.75-9.75s9.75 4.365 9.75 9.75-4.365 9.75-9.75 9.75S2.25 17.385 2.25 12Z" clip-rule="evenodd"/>
  <path fill="#fff" fill-rule="evenodd" d="M14.796 14.842a.75.75 0 0 1-1.06 0l-4.243-4.243a.75.75 0 1 1 1.06-1.06l4.243 4.242a.75.75 0 0 1 0 1.06Z" clip-rule="evenodd"/>
  <path fill="#fff" fill-rule="evenodd" d="M14.238 9.432a.75.75 0 0 1-.75.75h-3.28v3.281a.75.75 0 1 1-1.5 0V9.927c0-.697.547-1.245 1.245-1.245h3.535a.75.75 0 0 1 .75.75Z" clip-rule="evenodd"/>
</svg>
